Research/study-6/questionnaire-assets/sam/valence/valence_05.svg

<svg id="svg3039" xmlns="http://www.w3.org/2000/svg" viewBox="0 0 100 107"><defs><style>.cls-1,.cls-3,.cls-4,.cls-5,.cls-6{fill:none;}.cls-1,.cls-2,.cls-3,.cls-4,.cls-5,.cls-6{stroke:#000;}.cls-1{stroke-width:2px;}.cls-2{fill:red;stroke-width:1.4px;}.cls-2,.cls-3,.cls-4{stroke-linecap:round;}.cls-3{stroke-width:1.4px;}.cls-4{stroke-width:1.5px;}.cls-6{stroke-width:1.52px;}</style></defs><title>valence_05</title><path id="path3827" class="cls-1" d="M37,27v13H15v22h10v-7v34H14v11h23V89h26v11h23V89H75V55v7h10V40H63V16H37V27h-6V10h38v17h-6"/><path id="path3082" class="cls-2" d="M41.7,22h5"/><path id="path3084" class="cls-3" d="M52.7,22h5.1"/><path id="path4082" class="cls-4" d="M52,29.2c-1.4,1.9-3.1,2-4.8,0"/><path id="path4084" class="cls-5" d="M47.3,26c0,.8-1.2,1.5-2.8,1.5s-2.8-.7-2.8-1.5,1.2-1.5,2.8-1.5S47.3,25.2,47.3,26Z"/><path id="path4130" class="cls-5" d="M57.5,26c0,.8-1.2,1.5-2.8,1.5s-2.8-.7-2.8-1.5,1.2-1.5,2.8-1.5S57.5,25.2,57.5,26Z"/><path id="path4132" class="cls-5" d="M45.2,26c0,.8-.3,1.4-.7,1.4s-.7-.6-.7-1.4.3-1.4.7-1.4S45.2,25.2,45.2,26Z"/><path id="path4134" class="cls-5" d="M55.4,26c0,.8-.3,1.4-.7,1.4S54,26.8,54,26s.3-1.4.7-1.4S55.4,25.2,55.4,26Z"/><path id="path3984" class="cls-6" d="M43.8,34.8H55.3"/></svg>

<svg id="svg3039" xmlns="http://www.w3.org/2000/svg" viewBox="0 0 100 107"><defs><style>.cls-1,.cls-3,.cls-4,.cls-5,.cls-6{fill:none;}.cls-1,.cls-2,.cls-3,.cls-4,.cls-5,.cls-6{stroke:#000;}.cls-1{stroke-width:2px;}.cls-2{fill:red;stroke-width:1.4px;}.cls-2,.cls-3,.cls-4{stroke-linecap:round;}.cls-3{stroke-width:1.4px;}.cls-4{stroke-width:1.5px;}.cls-6{stroke-width:1.52px;}</style></defs><title>valence_05</title><path id="path3827" class="cls-1" d="M37,27V40H15V62H25V89H14v11H37V89H63v11H86V89H75V62H85V40H63V16H37V27H31V10H69V27H63"/><path id="path3082" class="cls-2" d="M41.7,22h5"/><path id="path3084" class="cls-3" d="M52.7,22h5.1"/><path id="path4082" class="cls-4" d="M52,29.2c-1.4,1.9-3.1,2-4.8,0"/><path id="path4084" class="cls-5" d="M47.3,26c0,.8-1.2,1.5-2.8,1.5s-2.8-.7-2.8-1.5,1.2-1.5,2.8-1.5S47.3,25.2,47.3,26Z"/><path id="path4130" class="cls-5" d="M57.5,26c0,.8-1.2,1.5-2.8,1.5s-2.8-.7-2.8-1.5,1.2-1.5,2.8-1.5S57.5,25.2,57.5,26Z"/><path id="path4132" class="cls-5" d="M45.2,26c0,.8-.3,1.4-.7,1.4s-.7-.6-.7-1.4.3-1.4.7-1.4S45.2,25.2,45.2,26Z"/><path id="path4134" class="cls-5" d="M55.4,26c0,.8-.3,1.4-.7,1.4S54,26.8,54,26s.3-1.4.7-1.4S55.4,25.2,55.4,26Z"/><path id="path3984" class="cls-6" d="M43.8,34.8H55.3"/></svg>
